X: 31396
T: Paddy On The Landfill
R: reel
M: 4/4
K: Gdorian
G,A,B,D G4|AGFD G3 E|F2 AF BFAF|BAGF GFDF|
G2 BG AGBG|F2 AF BFAF|BAGF DFGA|BcAB G4:|
|:g2 dg fgdg|g/g/g dg fdcA|g2 dg fgdg|gabg agfd|
g2 dg fgdg|g/g/g dg fdcA|BAGF DFGA|BcAB G4:|

